public/assets/images/icons/app-store.svg

<svg width="192" height="56" viewBox="0 0 192 56" fill="none" xmlns="http://www.w3.org/2000/svg">
  <rect width="192" height="56" rx="10" fill="#151515"/>
  <path d="M47.3999 27.3286C47.3641 23.4495 50.6575 21.5623 50.8081 21.4745C48.9429 18.8231 46.0519 18.4608 45.036 18.4319C42.6079 18.1828 40.2526 19.8485 39.0157 19.8485C37.7542 19.8485 35.8495 18.456 33.7967 18.4969C31.155 18.5366 28.6837 20.0278 27.3283 22.3434C24.5312 27.065 26.6173 34.0034 29.2972 37.8199C30.6378 39.689 32.2043 41.776 34.2546 41.7025C36.2605 41.6219 37.0098 40.4557 39.4305 40.4557C41.829 40.4557 42.5326 41.7025 44.6237 41.6556C46.7765 41.6219 48.1319 39.7781 49.4255 37.8921C50.9747 35.7498 51.5969 33.64 51.6215 33.5316C51.5709 33.5148 47.4406 31.9779 47.3999 27.3286Z" fill="white"/>
  <path d="M43.4497 15.9213C44.5286 14.6058 45.2668 12.8161 45.0619 11C43.5004 11.0674 41.5475 12.0531 40.423 13.3397C39.428 14.4734 38.5393 16.3317 38.7689 18.0793C40.523 18.2068 42.324 17.2163 43.4497 15.9213Z" fill="white"/>
  <path d="M76.4291 41.4301H73.6258L72.0902 36.7254H66.7526L65.2898 41.4301H62.5605L67.8488 25.4132H71.115L76.4291 41.4301ZM71.6273 34.7516L70.2386 30.5692C70.0917 30.142 69.8164 29.1358 69.4103 27.5519H69.3609C69.1992 28.2331 68.9387 29.2393 68.5808 30.5692L67.2167 34.7516H71.6273V34.7516Z" fill="white"/>
  <path d="M90.0286 35.5168C90.0286 37.4809 89.4843 39.0335 88.3955 40.1733C87.4203 41.1879 86.2094 41.6946 84.7639 41.6946C83.2036 41.6946 82.0827 41.1482 81.4001 40.0553H81.3507V46.1393H78.719V33.6862C78.719 32.4513 78.6856 31.184 78.6215 29.8841H80.936L81.0829 31.7147H81.1323C82.0099 30.3355 83.3418 29.647 85.1293 29.647C86.5266 29.647 87.6931 30.185 88.6264 31.2622C89.562 32.3406 90.0286 33.7584 90.0286 35.5168ZM87.3475 35.6106C87.3475 34.4865 87.0883 33.5598 86.5674 32.8304C85.9983 32.0698 85.2342 31.6895 84.2763 31.6895C83.627 31.6895 83.0369 31.9013 82.5098 32.3189C81.9815 32.7402 81.6359 33.2902 81.4742 33.9714C81.3927 34.2891 81.352 34.5491 81.352 34.7537V36.6794C81.352 37.5195 81.6161 38.2284 82.1445 38.8073C82.6728 39.3862 83.3591 39.675 84.2035 39.675C85.1947 39.675 85.9662 39.3019 86.518 38.5581C87.071 37.8131 87.3475 36.831 87.3475 35.6106Z" fill="white"/>
  <path d="M103.653 35.5168C103.653 37.4809 103.109 39.0335 102.019 40.1733C101.045 41.1879 99.8336 41.6946 98.3881 41.6946C96.8278 41.6946 95.707 41.1482 95.0256 40.0553H94.9762V46.1393H92.3445V33.6862C92.3445 32.4513 92.3111 31.184 92.2469 29.8841H94.5615L94.7084 31.7147H94.7577C95.6342 30.3355 96.9661 29.647 98.7548 29.647C100.151 29.647 101.317 30.185 102.253 31.2622C103.185 32.3406 103.653 33.7584 103.653 35.5168ZM100.972 35.6106C100.972 34.4865 100.711 33.5598 100.19 32.8304C99.6213 32.0698 98.8597 31.6895 97.9005 31.6895C97.25 31.6895 96.6612 31.9013 96.1329 32.3189C95.6045 32.7402 95.2601 33.2902 95.0984 33.9714C95.0182 34.2891 94.9762 34.5491 94.9762 34.7537V36.6794C94.9762 37.5195 95.2404 38.2284 95.7662 38.8073C96.2946 39.385 96.9809 39.675 97.8277 39.675C98.8189 39.675 99.5905 39.3019 100.142 38.5581C100.695 37.8131 100.972 36.831 100.972 35.6106Z" fill="white"/>
  <path d="M118.885 36.9396C118.885 38.302 118.4 39.4105 117.426 40.2662C116.356 41.2013 114.866 41.6683 112.952 41.6683C111.184 41.6683 109.767 41.3361 108.694 40.6706L109.304 38.5319C110.459 39.2131 111.727 39.5549 113.108 39.5549C114.1 39.5549 114.871 39.3358 115.425 38.9002C115.977 38.4645 116.252 37.8796 116.252 37.1502C116.252 36.5003 116.025 35.9527 115.57 35.5086C115.117 35.0644 114.36 34.6516 113.303 34.2701C110.427 33.2242 108.99 31.6921 108.99 29.6774C108.99 28.3607 109.494 27.2811 110.503 26.441C111.507 25.5997 112.848 25.1797 114.524 25.1797C116.019 25.1797 117.261 25.4336 118.252 25.9403L117.594 28.0321C116.668 27.5411 115.622 27.2955 114.45 27.2955C113.524 27.2955 112.801 27.5182 112.283 27.9611C111.844 28.3571 111.625 28.8397 111.625 29.4114C111.625 30.0444 111.875 30.568 112.379 30.9796C112.817 31.3599 113.613 31.7715 114.769 32.2156C116.182 32.7705 117.22 33.4192 117.888 34.163C118.553 34.9044 118.885 35.8323 118.885 36.9396Z" fill="white"/>
  <path d="M127.587 31.8099H124.686V37.4173C124.686 38.8435 125.197 39.556 126.222 39.556C126.692 39.556 127.082 39.5163 127.391 39.4368L127.463 41.3854C126.945 41.5743 126.262 41.6694 125.417 41.6694C124.377 41.6694 123.565 41.3601 122.979 40.7427C122.395 40.124 122.101 39.0866 122.101 37.6291V31.8075H120.373V29.8818H122.101V27.7672L124.686 27.0066V29.8818H127.587V31.8099Z" fill="white"/>
  <path d="M140.675 35.5625C140.675 37.3377 140.154 38.7952 139.115 39.935C138.025 41.1084 136.578 41.6934 134.775 41.6934C133.037 41.6934 131.653 41.1313 130.621 40.0072C129.589 38.8831 129.073 37.4641 129.073 35.7539C129.073 33.9642 129.604 32.4983 130.669 31.3585C131.732 30.2175 133.166 29.647 134.97 29.647C136.708 29.647 138.107 30.2091 139.162 31.3344C140.172 32.426 140.675 33.8354 140.675 35.5625ZM137.945 35.6455C137.945 34.5804 137.712 33.6669 137.239 32.9051C136.687 31.9831 135.898 31.5234 134.876 31.5234C133.818 31.5234 133.015 31.9843 132.463 32.9051C131.99 33.6681 131.757 34.596 131.757 35.6937C131.757 36.7588 131.99 37.6723 132.463 38.433C133.032 39.3549 133.827 39.8146 134.853 39.8146C135.858 39.8146 136.646 39.3452 137.215 38.4089C137.7 37.6326 137.945 36.7095 137.945 35.6455Z" fill="white"/>
  <path d="M149.23 32.1408C148.969 32.0939 148.691 32.0698 148.4 32.0698C147.474 32.0698 146.758 32.4104 146.255 33.0928C145.817 33.6946 145.597 34.4552 145.597 35.3735V41.4334H142.966L142.991 33.5213C142.991 32.1901 142.958 30.9782 142.892 29.8853H145.185L145.281 32.0951H145.354C145.631 31.3356 146.07 30.7242 146.669 30.2657C147.256 29.8528 147.889 29.647 148.572 29.647C148.815 29.647 149.035 29.6639 149.23 29.694V32.1408Z" fill="white"/>
  <path d="M161 35.1114C161 35.5712 160.969 35.9587 160.904 36.2753H153.008C153.039 37.4162 153.421 38.2888 154.154 38.8906C154.819 39.4286 155.679 39.6982 156.736 39.6982C157.905 39.6982 158.972 39.5164 159.931 39.1517L160.343 40.933C159.222 41.4096 157.899 41.6467 156.372 41.6467C154.535 41.6467 153.093 41.1195 152.044 40.0664C150.997 39.0133 150.473 37.5992 150.473 35.8251C150.473 34.0836 150.96 32.6333 151.937 31.4767C152.959 30.2419 154.34 29.6244 156.078 29.6244C157.785 29.6244 159.078 30.2419 159.955 31.4767C160.65 32.4576 161 33.6708 161 35.1114ZM158.49 34.4459C158.508 33.6852 158.336 33.0281 157.979 32.4732C157.524 31.7595 156.824 31.4033 155.882 31.4033C155.022 31.4033 154.322 31.7511 153.787 32.4492C153.349 33.004 153.088 33.6696 153.008 34.4447H158.49V34.4459Z" fill="white"/>
  <path d="M70.757 15.5673C70.757 16.9839 70.3213 18.0502 69.451 18.7663C68.6449 19.4271 67.4994 19.7581 66.0156 19.7581C65.2799 19.7581 64.6504 19.7268 64.1233 19.6642V11.9241C64.8109 11.8158 65.5515 11.7605 66.3514 11.7605C67.7648 11.7605 68.8301 12.0601 69.5485 12.6595C70.3534 13.3371 70.757 14.306 70.757 15.5673ZM69.393 15.6022C69.393 14.6839 69.1436 13.9798 68.6449 13.4888C68.1462 12.9989 67.4179 12.7534 66.4588 12.7534C66.0514 12.7534 65.7046 12.7799 65.417 12.8352V18.7194C65.5762 18.7435 65.8675 18.7543 66.2909 18.7543C67.2809 18.7543 68.045 18.4859 68.5832 17.9491C69.1214 17.4123 69.393 16.63 69.393 15.6022Z" fill="white"/>
  <path d="M77.9893 16.8053C77.9893 17.6779 77.7338 18.3928 77.2228 18.9537C76.687 19.5302 75.9772 19.8178 75.0909 19.8178C74.2367 19.8178 73.5566 19.5422 73.0492 18.9886C72.5431 18.4362 72.2901 17.7393 72.2901 16.8992C72.2901 16.0206 72.5505 15.2997 73.0739 14.74C73.5973 14.1804 74.3009 13.9 75.1872 13.9C76.0414 13.9 76.7278 14.1756 77.2475 14.728C77.7412 15.2648 77.9893 15.958 77.9893 16.8053ZM76.6475 16.8463C76.6475 16.3227 76.5315 15.8738 76.3007 15.4995C76.0291 15.047 75.6427 14.8207 75.1403 14.8207C74.6206 14.8207 74.2256 15.047 73.954 15.4995C73.722 15.8738 73.6072 16.3299 73.6072 16.8691C73.6072 17.3927 73.7232 17.8416 73.954 18.2159C74.2343 18.6684 74.6243 18.8947 75.128 18.8947C75.6217 18.8947 76.0093 18.6648 76.2883 18.2039C76.5278 17.8223 76.6475 17.3698 76.6475 16.8463Z" fill="white"/>
  <path d="M87.6867 14.013L85.866 19.6865H84.6809L83.9267 17.2228C83.7354 16.6078 83.5798 15.9964 83.4589 15.3898H83.4354C83.3231 16.0133 83.1675 16.6235 82.9676 17.2228L82.1664 19.6865H80.9678L79.2557 14.013H80.5852L81.2431 16.7101C81.4023 17.348 81.5332 17.9558 81.6381 18.5311H81.6616C81.7578 18.0569 81.9171 17.4527 82.1417 16.7222L82.9676 14.0142H84.0218L84.813 16.6644C85.0043 17.3107 85.1599 17.9329 85.2796 18.5323H85.3154C85.4031 17.9486 85.5351 17.3263 85.7104 16.6644L86.4165 14.0142H87.6867V14.013Z" fill="white"/>
  <path d="M94.3937 19.6889H93.1V16.4393C93.1 15.438 92.71 14.9373 91.9273 14.9373C91.5434 14.9373 91.2336 15.0745 90.9929 15.3501C90.7547 15.6257 90.6337 15.9507 90.6337 16.3226V19.6877H89.34V15.6365C89.34 15.1383 89.324 14.5979 89.2931 14.013H90.43L90.4905 14.9H90.5263C90.6769 14.6244 90.9016 14.3969 91.1966 14.2151C91.5472 14.0033 91.9397 13.8962 92.3693 13.8962C92.9124 13.8962 93.3642 14.0671 93.7234 14.4101C94.1703 14.8302 94.3937 15.4572 94.3937 16.2901V19.6889V19.6889Z" fill="white"/>
  <path d="M97.9608 19.687H96.6684V11.4102H97.9608V19.687Z" fill="white"/>
  <path d="M105.577 16.8053C105.577 17.6779 105.322 18.3928 104.811 18.9537C104.275 19.5302 103.564 19.8178 102.679 19.8178C101.824 19.8178 101.143 19.5422 100.637 18.9886C100.131 18.4362 99.8781 17.7393 99.8781 16.8992C99.8781 16.0206 100.139 15.2997 100.662 14.74C101.185 14.1804 101.889 13.9 102.774 13.9C103.63 13.9 104.315 14.1756 104.836 14.728C105.329 15.2648 105.577 15.958 105.577 16.8053ZM104.234 16.8463C104.234 16.3227 104.118 15.8738 103.888 15.4995C103.617 15.047 103.23 14.8207 102.728 14.8207C102.207 14.8207 101.812 15.047 101.542 15.4995C101.31 15.8738 101.195 16.3299 101.195 16.8691C101.195 17.3927 101.311 17.8416 101.542 18.2159C101.822 18.6684 102.212 18.8947 102.716 18.8947C103.21 18.8947 103.596 18.6648 103.875 18.2039C104.116 17.8223 104.234 17.3698 104.234 16.8463Z" fill="white"/>
  <path d="M111.838 19.689H110.677L110.58 19.0355H110.545C110.147 19.5567 109.581 19.8178 108.845 19.8178C108.295 19.8178 107.851 19.6457 107.517 19.3039C107.213 18.9934 107.061 18.6071 107.061 18.1485C107.061 17.4553 107.357 16.9269 107.954 16.561C108.549 16.1951 109.385 16.0158 110.463 16.0242V15.9183C110.463 15.1709 110.061 14.7978 109.255 14.7978C108.681 14.7978 108.175 14.9386 107.738 15.2179L107.475 14.3898C108.015 14.0637 108.683 13.9 109.471 13.9C110.991 13.9 111.754 14.6823 111.754 16.2469V18.3363C111.754 18.9031 111.783 19.3545 111.838 19.689ZM110.495 17.7393V16.8643C109.068 16.8402 108.355 17.2218 108.355 18.0077C108.355 18.3038 108.436 18.5252 108.603 18.6732C108.77 18.8213 108.982 18.8947 109.235 18.8947C109.519 18.8947 109.784 18.8068 110.026 18.6323C110.269 18.4566 110.419 18.234 110.474 17.9607C110.488 17.8994 110.495 17.8247 110.495 17.7393Z" fill="white"/>
  <path d="M119.189 19.687H118.041L117.981 18.7759H117.945C117.578 19.4691 116.954 19.8157 116.076 19.8157C115.375 19.8157 114.791 19.5474 114.328 19.0106C113.865 18.4738 113.634 17.7769 113.634 16.9212C113.634 16.0029 113.885 15.2591 114.389 14.691C114.876 14.1615 115.474 13.8967 116.185 13.8967C116.966 13.8967 117.513 14.153 117.824 14.667H117.849V11.4102H119.143V18.1585C119.143 18.7109 119.158 19.22 119.189 19.687ZM117.849 17.2943V16.3483C117.849 16.1846 117.836 16.0522 117.813 15.9512C117.74 15.6479 117.583 15.3927 117.345 15.1869C117.104 14.9811 116.814 14.8776 116.48 14.8776C115.997 14.8776 115.619 15.0641 115.341 15.4384C115.066 15.8127 114.927 16.2906 114.927 16.8743C114.927 17.4351 115.059 17.8901 115.324 18.2403C115.604 18.6134 115.982 18.8 116.455 18.8C116.88 18.8 117.219 18.6447 117.477 18.333C117.726 18.0453 117.849 17.6987 117.849 17.2943Z" fill="white"/>
  <path d="M130.253 16.8053C130.253 17.6779 129.998 18.3928 129.487 18.9537C128.951 19.5302 128.242 19.8178 127.355 19.8178C126.502 19.8178 125.822 19.5422 125.313 18.9886C124.807 18.4362 124.554 17.7393 124.554 16.8992C124.554 16.0206 124.815 15.2997 125.338 14.74C125.861 14.1804 126.565 13.9 127.452 13.9C128.305 13.9 128.993 14.1756 129.511 14.728C130.005 15.2648 130.253 15.958 130.253 16.8053ZM128.913 16.8463C128.913 16.3227 128.797 15.8738 128.566 15.4995C128.293 15.047 127.908 14.8207 127.404 14.8207C126.886 14.8207 126.491 15.047 126.218 15.4995C125.986 15.8738 125.871 16.3299 125.871 16.8691C125.871 17.3927 125.987 17.8416 126.218 18.2159C126.498 18.6684 126.888 18.8947 127.392 18.8947C127.886 18.8947 128.275 18.6648 128.554 18.2039C128.792 17.8223 128.913 17.3698 128.913 16.8463Z" fill="white"/>
  <path d="M137.209 19.6889H135.917V16.4393C135.917 15.438 135.527 14.9373 134.743 14.9373C134.359 14.9373 134.049 15.0745 133.809 15.3501C133.57 15.6257 133.45 15.9507 133.45 16.3226V19.6877H132.155V15.6365C132.155 15.1383 132.141 14.5979 132.11 14.013H133.245L133.306 14.9H133.342C133.493 14.6244 133.718 14.3969 134.012 14.2151C134.364 14.0033 134.755 13.8962 135.186 13.8962C135.728 13.8962 136.18 14.0671 136.539 14.4101C136.987 14.8302 137.209 15.4572 137.209 16.2901V19.6889V19.6889Z" fill="white"/>
  <path d="M145.915 14.9582H144.491V17.7143C144.491 18.4148 144.744 18.765 145.245 18.765C145.477 18.765 145.67 18.7458 145.822 18.7061L145.855 19.6629C145.599 19.7568 145.264 19.8037 144.85 19.8037C144.339 19.8037 143.942 19.652 143.654 19.3488C143.365 19.0455 143.222 18.5351 143.222 17.819V14.9582H142.371V14.0134H143.222V12.9735L144.49 12.6004V14.0122H145.914V14.9582H145.915Z" fill="white"/>
  <path d="M152.764 19.687H151.469V16.4615C151.469 15.4445 151.079 14.9354 150.298 14.9354C149.698 14.9354 149.288 15.2302 149.063 15.82C149.025 15.9439 149.003 16.0956 149.003 16.2737V19.6858H147.71V11.4102H149.003V14.8294H149.027C149.435 14.2072 150.019 13.8967 150.775 13.8967C151.311 13.8967 151.754 14.0676 152.106 14.4106C152.544 14.8379 152.764 15.4733 152.764 16.3134V19.687V19.687Z" fill="white"/>
  <path d="M159.828 16.5834C159.828 16.8097 159.811 16.9998 159.78 17.1551H155.9C155.918 17.716 156.103 18.1432 156.462 18.4393C156.79 18.7041 157.214 18.8365 157.732 18.8365C158.306 18.8365 158.83 18.7474 159.301 18.5681L159.504 19.4443C158.952 19.6777 158.302 19.7945 157.551 19.7945C156.65 19.7945 155.94 19.5357 155.426 19.0182C154.91 18.5007 154.655 17.8062 154.655 16.9349C154.655 16.0791 154.893 15.3666 155.373 14.7986C155.874 14.192 156.552 13.8887 157.408 13.8887C158.244 13.8887 158.88 14.192 159.31 14.7986C159.657 15.28 159.828 15.8757 159.828 16.5834ZM158.594 16.2573C158.604 15.883 158.518 15.5604 158.343 15.2884C158.119 14.9382 157.777 14.7624 157.314 14.7624C156.892 14.7624 156.547 14.9334 156.284 15.2764C156.069 15.5496 155.942 15.8757 155.9 16.2573H158.594Z" fill="white"/>
</svg>

<svg width="192" height="56" fill="none" xmlns="http://www.w3.org/2000/svg"><rect width="192" height="56" rx="10" fill="#151515"/><path d="M47.4 27.329c-.036-3.88 3.258-5.767 3.408-5.855-1.865-2.65-4.756-3.013-5.772-3.042-2.428-.25-4.783 1.417-6.02 1.417-1.262 0-3.166-1.393-5.22-1.352-2.641.04-5.112 1.53-6.468 3.846-2.797 4.722-.71 11.66 1.97 15.477 1.34 1.869 2.906 3.956 4.957 3.883 2.005-.081 2.755-1.247 5.175-1.247 2.399 0 3.103 1.246 5.194 1.2 2.152-.034 3.508-1.878 4.801-3.764 1.55-2.142 2.172-4.252 2.197-4.36-.051-.017-4.181-1.554-4.222-6.203zM43.45 15.921c1.079-1.315 1.817-3.105 1.612-4.921-1.562.067-3.514 1.053-4.639 2.34-.995 1.133-1.884 2.992-1.654 4.74 1.754.127 3.555-.864 4.68-2.159zM76.43 41.43h-2.804l-1.536-4.705h-5.337L65.29 41.43h-2.73l5.289-16.017h3.266l5.314 16.017zm-4.803-6.678l-1.388-4.183c-.147-.427-.423-1.433-.829-3.017h-.05a114.29 114.29 0 01-.78 3.017l-1.363 4.183h4.41zM90.029 35.517c0 1.964-.545 3.516-1.633 4.656-.976 1.015-2.187 1.522-3.632 1.522-1.56 0-2.681-.547-3.364-1.64h-.05v6.084H78.72V33.686c0-1.235-.033-2.502-.097-3.802h2.314l.147 1.83h.05c.877-1.378 2.209-2.067 3.996-2.067 1.398 0 2.564.538 3.497 1.615.936 1.079 1.403 2.496 1.403 4.255zm-2.681.094c0-1.124-.26-2.051-.78-2.78-.57-.761-1.334-1.142-2.292-1.142-.649 0-1.24.212-1.766.63a2.91 2.91 0 00-1.036 1.652 3.28 3.28 0 00-.122.783v1.925c0 .84.264 1.55.792 2.128.529.58 1.215.868 2.06.868.99 0 1.762-.373 2.314-1.117.553-.745.83-1.727.83-2.947zM103.653 35.517c0 1.964-.544 3.516-1.634 4.656-.974 1.015-2.185 1.522-3.63 1.522-1.561 0-2.682-.547-3.363-1.64h-.05v6.084h-2.632V33.686c0-1.235-.033-2.502-.097-3.802h2.314l.147 1.83h.05c.876-1.378 2.208-2.067 3.997-2.067 1.396 0 2.562.538 3.498 1.615.932 1.079 1.4 2.496 1.4 4.255zm-2.681.094c0-1.124-.261-2.051-.782-2.78-.569-.761-1.33-1.142-2.29-1.142-.65 0-1.239.212-1.767.63a2.907 2.907 0 00-1.035 1.652c-.08.318-.122.578-.122.783v1.925c0 .84.264 1.55.79 2.128.529.578 1.215.868 2.062.868.99 0 1.763-.373 2.314-1.117.553-.745.83-1.727.83-2.947zM118.885 36.94c0 1.362-.485 2.47-1.459 3.326-1.07.935-2.56 1.402-4.474 1.402-1.768 0-3.185-.332-4.258-.997l.61-2.14a7.353 7.353 0 003.804 1.024c.992 0 1.763-.22 2.317-.655.552-.435.827-1.02.827-1.75 0-.65-.227-1.197-.682-1.641-.453-.445-1.21-.857-2.267-1.239-2.876-1.046-4.313-2.578-4.313-4.593 0-1.316.504-2.396 1.513-3.236 1.004-.841 2.345-1.261 4.021-1.261 1.495 0 2.737.254 3.728.76l-.658 2.092c-.926-.49-1.972-.736-3.144-.736-.926 0-1.649.222-2.167.665-.439.396-.658.879-.658 1.45 0 .633.25 1.157.754 1.569.438.38 1.234.791 2.39 1.236 1.413.554 2.451 1.203 3.119 1.947.665.741.997 1.67.997 2.777zM127.587 31.81h-2.901v5.607c0 1.426.511 2.139 1.536 2.139.47 0 .86-.04 1.169-.12l.072 1.95c-.518.188-1.201.283-2.046.283-1.04 0-1.852-.309-2.438-.926-.584-.619-.878-1.656-.878-3.114v-5.821h-1.728v-1.926h1.728v-2.115l2.585-.76v2.875h2.901v1.928zM140.675 35.563c0 1.775-.521 3.232-1.56 4.372-1.09 1.173-2.537 1.758-4.34 1.758-1.738 0-3.122-.562-4.154-1.686-1.032-1.124-1.548-2.543-1.548-4.253 0-1.79.531-3.256 1.596-4.395 1.063-1.142 2.497-1.712 4.301-1.712 1.738 0 3.137.562 4.192 1.687 1.01 1.092 1.513 2.501 1.513 4.229zm-2.73.082c0-1.065-.233-1.978-.706-2.74-.552-.922-1.341-1.382-2.363-1.382-1.058 0-1.861.461-2.413 1.382-.473.763-.706 1.691-.706 2.789 0 1.065.233 1.978.706 2.739.569.922 1.364 1.382 2.39 1.382 1.005 0 1.793-.47 2.362-1.406.485-.776.73-1.7.73-2.764zM149.23 32.14a4.7 4.7 0 00-.83-.07c-.926 0-1.642.34-2.145 1.023-.438.602-.658 1.362-.658 2.28v6.06h-2.631l.025-7.912a60.73 60.73 0 00-.099-3.636h2.293l.096 2.21h.073c.277-.76.716-1.37 1.315-1.83a3.239 3.239 0 011.903-.618c.243 0 .463.017.658.047v2.447zM161 35.111c0 .46-.031.848-.096 1.164h-7.896c.031 1.141.413 2.014 1.146 2.616.665.538 1.525.807 2.582.807 1.169 0 2.236-.182 3.195-.546l.412 1.781c-1.121.477-2.444.714-3.971.714-1.837 0-3.279-.527-4.328-1.58-1.047-1.054-1.571-2.468-1.571-4.242 0-1.741.487-3.192 1.464-4.348 1.022-1.235 2.403-1.853 4.141-1.853 1.707 0 3 .618 3.877 1.853.695.98 1.045 2.194 1.045 3.634zm-2.51-.665c.018-.76-.154-1.418-.511-1.973-.455-.713-1.155-1.07-2.097-1.07-.86 0-1.56.348-2.095 1.046-.438.555-.699 1.22-.779 1.996h5.482zM70.757 15.567c0 1.417-.436 2.483-1.306 3.2-.806.66-1.952.991-3.435.991-.736 0-1.366-.031-1.893-.094v-7.74a14.318 14.318 0 012.228-.163c1.414 0 2.48.3 3.198.899.804.677 1.208 1.646 1.208 2.907zm-1.364.035c0-.918-.25-1.622-.748-2.113-.499-.49-1.227-.736-2.186-.736-.408 0-.754.027-1.042.082v5.884c.16.024.45.035.874.035.99 0 1.754-.268 2.292-.805.538-.537.81-1.319.81-2.347zM77.99 16.805c0 .873-.256 1.588-.767 2.149-.536.576-1.246.864-2.132.864-.854 0-1.534-.276-2.042-.83-.506-.552-.759-1.249-.759-2.089 0-.878.26-1.6.784-2.159.523-.56 1.227-.84 2.113-.84.854 0 1.54.276 2.06.828.494.537.742 1.23.742 2.077zm-1.343.041c0-.523-.116-.972-.346-1.347-.272-.452-.658-.678-1.16-.678-.52 0-.915.226-1.187.678-.232.375-.347.83-.347 1.37 0 .524.116.973.347 1.347.28.452.67.679 1.174.679.494 0 .881-.23 1.16-.691.24-.382.36-.834.36-1.358zM87.687 14.013l-1.821 5.673h-1.185l-.754-2.463a18.048 18.048 0 01-.468-1.833h-.024a13.146 13.146 0 01-.467 1.833l-.802 2.463h-1.198l-1.712-5.673h1.33l.657 2.697c.16.638.29 1.246.395 1.821h.024c.096-.474.255-1.078.48-1.809l.826-2.708h1.054l.791 2.65c.191.647.347 1.269.467 1.868h.035c.088-.583.22-1.206.395-1.868l.707-2.65h1.27v-.001zM94.394 19.689H93.1v-3.25c0-1.001-.39-1.502-1.173-1.502a1.18 1.18 0 00-.934.413c-.238.276-.36.6-.36.973v3.365H89.34v-4.051c0-.499-.016-1.04-.047-1.624h1.137l.06.887h.036c.15-.276.376-.503.67-.685.351-.212.744-.319 1.173-.319.543 0 .995.171 1.354.514.447.42.67 1.047.67 1.88v3.399zM97.96 19.687h-1.292V11.41h1.293v8.277zM105.577 16.805c0 .873-.255 1.588-.766 2.149-.536.576-1.247.864-2.132.864-.855 0-1.536-.276-2.042-.83-.506-.552-.759-1.249-.759-2.089 0-.878.261-1.6.784-2.159.523-.56 1.227-.84 2.112-.84.856 0 1.541.276 2.062.828.493.537.741 1.23.741 2.077zm-1.343.041c0-.523-.116-.972-.346-1.347-.271-.452-.658-.678-1.16-.678-.521 0-.916.226-1.186.678-.232.375-.347.83-.347 1.37 0 .524.116.973.347 1.347.28.452.67.679 1.174.679.494 0 .88-.23 1.159-.691.241-.382.359-.834.359-1.358zM111.838 19.689h-1.161l-.097-.654h-.035c-.398.522-.964.783-1.7.783-.55 0-.994-.172-1.328-.514a1.588 1.588 0 01-.456-1.155c0-.694.296-1.222.893-1.588.595-.366 1.431-.545 2.509-.537v-.106c0-.747-.402-1.12-1.208-1.12-.574 0-1.08.14-1.517.42l-.263-.828c.54-.326 1.208-.49 1.996-.49 1.52 0 2.283.782 2.283 2.347v2.09c0 .566.029 1.018.084 1.352zm-1.343-1.95v-.875c-1.427-.024-2.14.358-2.14 1.144 0 .296.081.517.248.665a.92.92 0 00.632.222c.284 0 .549-.088.791-.263a1.07 1.07 0 00.469-.893zM119.189 19.687h-1.148l-.06-.911h-.036c-.367.693-.991 1.04-1.869 1.04a2.213 2.213 0 01-1.748-.805c-.463-.537-.694-1.234-.694-2.09 0-.918.251-1.662.755-2.23a2.344 2.344 0 011.796-.794c.781 0 1.328.256 1.639.77h.025V11.41h1.294v6.748c0 .553.015 1.062.046 1.529zm-1.34-2.393v-.946c0-.163-.013-.296-.036-.397a1.433 1.433 0 00-.468-.764 1.292 1.292 0 00-.865-.31c-.483 0-.861.187-1.139.561-.275.375-.414.853-.414 1.436 0 .561.132 1.016.397 1.366.28.373.658.56 1.131.56.425 0 .764-.155 1.022-.467.249-.288.372-.634.372-1.039zM130.253 16.805c0 .873-.255 1.588-.766 2.149-.536.576-1.245.864-2.132.864-.853 0-1.533-.276-2.042-.83-.506-.552-.759-1.249-.759-2.089 0-.878.261-1.6.784-2.159.523-.56 1.227-.84 2.114-.84.853 0 1.541.276 2.059.828.494.537.742 1.23.742 2.077zm-1.34.041c0-.523-.116-.972-.347-1.347-.273-.452-.658-.678-1.162-.678-.518 0-.913.226-1.186.678-.232.375-.347.83-.347 1.37 0 .524.116.973.347 1.347.28.452.67.679 1.174.679.494 0 .883-.23 1.162-.691.238-.382.359-.834.359-1.358zM137.209 19.689h-1.292v-3.25c0-1.001-.39-1.502-1.174-1.502-.384 0-.694.138-.934.413-.239.276-.359.6-.359.973v3.365h-1.295v-4.051c0-.499-.014-1.04-.045-1.624h1.135l.061.887h.036c.151-.276.376-.503.67-.685a2.233 2.233 0 011.174-.319c.542 0 .994.171 1.353.514.448.42.67 1.047.67 1.88v3.399zM145.915 14.958h-1.424v2.756c0 .7.253 1.051.754 1.051.232 0 .425-.02.577-.059l.033.957c-.256.094-.591.14-1.005.14-.511 0-.908-.151-1.196-.454-.289-.303-.432-.814-.432-1.53v-2.86h-.851v-.946h.851v-1.04l1.268-.373v1.412h1.424v.946h.001zM152.764 19.687h-1.295v-3.226c0-1.016-.39-1.526-1.171-1.526-.6 0-1.01.295-1.235.885-.038.124-.06.276-.06.454v3.412h-1.293V11.41h1.293v3.42h.024c.408-.623.992-.933 1.748-.933.536 0 .979.17 1.331.514.438.427.658 1.062.658 1.902v3.374zM159.828 16.583c0 .227-.017.417-.048.572h-3.88c.018.561.203.988.562 1.284.328.265.752.398 1.27.398.574 0 1.098-.09 1.569-.269l.203.876c-.552.234-1.202.35-1.953.35-.901 0-1.611-.258-2.125-.776-.516-.517-.771-1.212-.771-2.083 0-.856.238-1.568.718-2.136.501-.607 1.179-.91 2.035-.91.836 0 1.472.303 1.902.91.347.481.518 1.077.518 1.784zm-1.234-.326a1.667 1.667 0 00-.251-.969c-.224-.35-.566-.526-1.029-.526a1.24 1.24 0 00-1.03.514 1.88 1.88 0 00-.384.981h2.694z" fill="#fff"/></svg>
